flaticon/medical/tablets.svg

<svg xmlns="http://www.w3.org/2000/svg" width="32" height="32" viewBox="0 0 24 24">
    <path d="M6.398438 13.597656C6.398438 13.820312 6.21875 14 6 14 5.777344 14 5.597656 13.820312 5.597656 13.597656 5.597656 13.378906 5.777344 13.199219 6 13.199219 6.21875 13.199219 6.398438 13.378906 6.398438 13.597656zM22 21.601562C22 21.820312 21.820312 22 21.601562 22 21.378906 22 21.199219 21.820312 21.199219 21.601562 21.199219 21.378906 21.378906 21.199219 21.601562 21.199219 21.820312 21.199219 22 21.378906 22 21.601562zM5.597656 11.195312C7.035156 11.195312 8.46875 10.648438 9.558594 9.558594 11.742188 7.375 11.742188 3.820312 9.558594 1.636719 7.375-.546875 3.824219-.546875 1.640625 1.636719-.542969 3.820312-.542969 7.375 1.640625 9.558594 2.730469 10.648438 4.164062 11.195312 5.597656 11.195312zM2.203125 2.203125C3.140625 1.269531 4.371094.800781 5.597656.800781 6.828125.800781 8.058594 1.269531 8.992188 2.203125 10.867188 4.074219 10.867188 7.121094 8.992188 8.992188 7.121094 10.863281 4.078125 10.863281 2.203125 8.992188.332031 7.121094.332031 4.074219 2.203125 2.203125zM12.398438 12.800781C9.3125 12.800781 6.800781 15.3125 6.800781 18.398438 6.800781 21.488281 9.3125 24 12.398438 24 15.488281 24 18 21.488281 18 18.398438 18 15.3125 15.488281 12.800781 12.398438 12.800781zM12.398438 23.199219C9.753906 23.199219 7.597656 21.046875 7.597656 18.398438 7.597656 15.753906 9.753906 13.597656 12.398438 13.597656 15.046875 13.597656 17.199219 15.753906 17.199219 18.398438 17.199219 21.046875 15.046875 23.199219 12.398438 23.199219zM22.359375 3.238281C20.175781 1.054688 16.625 1.054688 14.441406 3.238281 12.257812 5.421875 12.257812 8.972656 14.441406 11.160156 15.53125 12.25 16.964844 12.796875 18.398438 12.796875 19.835938 12.796875 21.269531 12.25 22.359375 11.160156 24.542969 8.976562 24.542969 5.421875 22.359375 3.238281zM15.007812 10.59375C13.132812 8.722656 13.132812 5.675781 15.007812 3.804688 15.941406 2.867188 17.171875 2.398438 18.402344 2.398438 19.628906 2.398438 20.859375 2.867188 21.796875 3.804688 23.667969 5.675781 23.667969 8.722656 21.796875 10.59375 19.921875 12.464844 16.878906 12.464844 15.007812 10.59375zM15.007812 10.59375"/>
    <path d="M3.054688 8.542969C3.15625 8.542969 3.257812 8.503906 3.335938 8.425781L8.429688 3.335938C8.585938 3.179688 8.585938 2.925781 8.429688 2.769531 8.273438 2.613281 8.019531 2.613281 7.863281 2.769531L2.769531 7.859375C2.613281 8.015625 2.613281 8.269531 2.769531 8.425781 2.847656 8.503906 2.949219 8.542969 3.054688 8.542969zM16.136719 4.371094C15.980469 4.214844 15.726562 4.214844 15.570312 4.371094 15.414062 4.527344 15.414062 4.777344 15.570312 4.933594L20.664062 10.027344C20.742188 10.105469 20.84375 10.144531 20.945312 10.144531 21.050781 10.144531 21.152344 10.105469 21.230469 10.027344 21.386719 9.871094 21.386719 9.617188 21.230469 9.460938zM12.398438 14.398438C12.179688 14.398438 12 14.578125 12 14.800781L12 22C12 22.21875 12.179688 22.398438 12.398438 22.398438 12.621094 22.398438 12.800781 22.21875 12.800781 22L12.800781 14.800781C12.800781 14.578125 12.621094 14.398438 12.398438 14.398438zM4 19.597656L2.800781 19.597656 2.800781 18.398438C2.800781 18.179688 2.621094 18 2.398438 18 2.179688 18 2 18.179688 2 18.398438L2 19.597656.800781 19.597656C.578125 19.597656.398438 19.777344.398438 20 .398438 20.21875.578125 20.398438.800781 20.398438L2 20.398438 2 21.601562C2 21.820312 2.179688 22 2.398438 22 2.621094 22 2.800781 21.820312 2.800781 21.601562L2.800781 20.398438 4 20.398438C4.21875 20.398438 4.398438 20.21875 4.398438 20 4.398438 19.777344 4.21875 19.597656 4 19.597656zM23.015625 13.851562C22.859375 13.695312 22.605469 13.695312 22.449219 13.851562L21.601562 14.703125 20.75 13.851562C20.59375 13.695312 20.34375 13.695312 20.1875 13.851562 20.03125 14.011719 20.03125 14.261719 20.1875 14.417969L21.035156 15.265625 20.1875 16.117188C20.03125 16.273438 20.03125 16.523438 20.1875 16.683594 20.265625 16.757812 20.367188 16.800781 20.46875 16.800781 20.570312 16.800781 20.671875 16.757812 20.75 16.683594L21.601562 15.832031 22.449219 16.683594C22.527344 16.757812 22.628906 16.800781 22.730469 16.800781 22.835938 16.800781 22.9375 16.757812 23.015625 16.683594 23.171875 16.523438 23.171875 16.273438 23.015625 16.117188L22.167969 15.265625 23.015625 14.417969C23.171875 14.261719 23.171875 14.011719 23.015625 13.851562zM23.015625 13.851562"/>
</svg>

<svg xmlns="http://www.w3.org/2000/svg" width="32" height="32" viewBox="0 0 24 24">
    <path d="M6.398 13.598a.401.401 0 1 1-.801.002.401.401 0 0 1 .801-.002zm0 0M22 21.602a.4.4 0 1 1-.8-.004.4.4 0 0 1 .8.004zm0 0M5.598 11.195a5.583 5.583 0 0 0 3.96-1.636 5.609 5.609 0 0 0 0-7.922 5.604 5.604 0 0 0-7.917 0 5.609 5.609 0 0 0 0 7.922 5.58 5.58 0 0 0 3.957 1.636zM2.203 2.203A4.801 4.801 0 0 1 5.598.801c1.23 0 2.46.469 3.394 1.402a4.8 4.8 0 1 1-6.789 0zm0 0M12.398 12.8a5.605 5.605 0 0 0-5.597 5.598A5.606 5.606 0 0 0 12.398 24 5.606 5.606 0 0 0 18 18.398a5.606 5.606 0 0 0-5.602-5.597zm0 10.4a4.807 4.807 0 0 1-4.8-4.802 4.81 4.81 0 0 1 4.8-4.8c2.649 0 4.801 2.156 4.801 4.8 0 2.649-2.152 4.801-4.8 4.801zm0 0M22.36 3.238a5.604 5.604 0 0 0-7.919 0 5.609 5.609 0 0 0 0 7.922 5.58 5.58 0 0 0 3.957 1.637 5.583 5.583 0 0 0 3.961-1.637 5.609 5.609 0 0 0 0-7.922zm-7.352 7.356a4.8 4.8 0 1 1 6.788-6.79 4.8 4.8 0 0 1-6.788 6.79zm0 0"/>
    <path d="M3.055 8.543c.101 0 .203-.04.28-.117l5.095-5.09a.4.4 0 0 0-.567-.566L2.77 7.86a.4.4 0 0 0 .285.683zm0 0M16.137 4.371a.4.4 0 0 0-.567 0 .396.396 0 0 0 0 .563l5.094 5.093a.399.399 0 0 0 .566 0 .4.4 0 0 0 0-.566zm0 0M12.398 14.398a.401.401 0 0 0-.398.403V22a.4.4 0 0 0 .8 0v-7.2a.402.402 0 0 0-.402-.402zm0 0M4 19.598H2.8v-1.2a.401.401 0 0 0-.8 0v1.2H.8a.401.401 0 0 0 0 .8H2v1.204a.4.4 0 0 0 .8 0v-1.204H4a.4.4 0 0 0 0-.8zm0 0M23.016 13.852a.4.4 0 0 0-.567 0l-.847.851-.852-.851a.396.396 0 0 0-.563 0 .4.4 0 0 0 0 .566l.848.848-.848.851a.4.4 0 0 0 .282.684.414.414 0 0 0 .281-.117l.852-.852.847.852c.078.074.18.117.281.117a.4.4 0 0 0 .285-.684l-.847-.851.848-.848a.4.4 0 0 0 0-.566zm0 0"/>
</svg>
